X: 31538
T: Paddy's Trip To Scotland
R: reel
M: 4/4
K: Dmajor
|:dA A2 BAGF|GABd cABc|d2fd cABc|dfed cABc|
dA A2 BAGF|GABd cABc|d2fd cABc|1 dfec d2dc:|2 dfec d2dB||
|:Adfd Adfd|Adfd edcB|Acec Acec|Acec dcBc|
Adfd Adfd|Adfd edfg|aA A2 BABc|1 dfec d2dB:|2 dfec dABc||

